images/expertise1.svg

<svg width="50" height="55" viewBox="0 0 50 55" fill="none" xmlns="http://www.w3.org/2000/svg">
<path fill-rule="evenodd" clip-rule="evenodd" d="M45.3906 16.7949L43.7566 18.4289C40.2162 15.343 35.6766 13.617 30.9566 13.617C27.7787 13.617 24.6026 14.434 21.8792 15.8859L28.7779 8.98722C29.3226 9.34977 29.9575 9.5319 30.5941 9.5319C31.5013 9.5319 32.4102 9.16935 33.1353 8.44254C34.5872 6.99063 34.5872 4.71999 33.1353 3.26807C32.4085 2.54126 31.5013 2.17871 30.5941 2.17871C29.6868 2.17871 28.7779 2.54126 28.0528 3.26807C26.8732 4.53956 26.6911 6.35403 27.5081 7.71573L18.7932 16.4306L17.1592 14.7966L12.7115 19.2442L14.3455 20.8783L5.44852 29.7753C4.90384 29.4128 4.26894 29.2306 3.63235 29.2306C2.72512 29.2306 1.81618 29.5932 1.09107 30.32C-0.360842 31.7719 -0.360842 34.0425 1.09107 35.4945C1.81788 36.1294 2.72512 36.4936 3.63235 36.4936C4.53958 36.4936 5.44852 36.1311 6.17363 35.4042C7.3532 34.2247 7.53533 32.4085 6.71831 30.9566L13.617 24.0579C9.98639 31.0485 10.8034 39.7634 16.1583 45.9353L14.5243 47.6596L19.0638 52.1072L23.5115 47.6596L19.0638 43.2119L17.52 44.7557C12.2553 38.5821 11.983 29.6868 16.4306 23.1506L17.1575 23.8774L21.697 19.4298L20.88 18.703C23.7855 16.6145 27.326 15.5251 30.9566 15.5251C35.2238 15.5251 39.217 17.0689 42.4851 19.7923L40.8511 21.3362L45.3906 25.7838L49.8383 21.3362L45.3906 16.7966V16.7949ZM20.9702 47.6596L19.0638 49.5659L17.1575 47.6596L19.0638 45.7532L20.9702 47.6596ZM29.3226 4.62977C29.6851 4.26722 30.1396 4.08509 30.5941 4.08509C31.0485 4.08509 31.5013 4.26722 31.8655 4.62977C32.5924 5.35658 32.5924 6.44595 31.8655 7.17105C31.503 7.5336 31.0485 7.71573 30.5941 7.71573C30.1396 7.71573 29.6868 7.5336 29.3226 7.17105C28.5958 6.53616 28.5958 5.35488 29.3226 4.62977ZM4.90214 34.1328C4.53958 34.4953 4.08511 34.6774 3.63065 34.6774C3.17618 34.6774 2.72341 34.4953 2.35916 34.1328C1.9966 33.8604 1.81448 33.4059 1.81448 32.8613C1.81448 32.4068 1.9966 31.954 2.35916 31.5898C2.72171 31.2255 3.17618 31.0451 3.63065 31.0451C4.08511 31.0451 4.53788 31.2272 4.90214 31.5898C5.62894 32.3166 5.62894 33.4962 4.90214 34.1311V34.1328ZM17.0672 21.3328L15.1609 19.4264L17.0672 17.52L18.9736 19.4264L17.0672 21.3328ZM45.3906 23.2391L43.4843 21.3328L45.3906 19.4264L47.297 21.3328L45.3906 23.2391Z" fill="#00B2A0"/>
</svg>

<svg width="50" height="55" fill="none" xmlns="http://www.w3.org/2000/svg"><path fill-rule="evenodd" clip-rule="evenodd" d="M45.39 16.795l-1.633 1.634a19.487 19.487 0 00-12.8-4.812c-3.178 0-6.354.817-9.078 2.269l6.899-6.899c.545.363 1.18.545 1.816.545.907 0 1.816-.363 2.541-1.09a3.618 3.618 0 000-5.174c-.727-.727-1.634-1.09-2.54-1.09-.908 0-1.817.363-2.542 1.09-1.18 1.272-1.362 3.086-.545 4.448l-8.715 8.715-1.634-1.634-4.447 4.447 1.633 1.634-8.896 8.897a3.277 3.277 0 00-1.817-.544c-.907 0-1.816.362-2.54 1.089a3.618 3.618 0 000 5.175c.726.634 1.633.999 2.54.999.908 0 1.817-.363 2.542-1.09 1.18-1.18 1.361-2.996.544-4.447l6.899-6.9c-3.63 6.992-2.814 15.706 2.541 21.878l-1.634 1.725 4.54 4.447 4.448-4.447-4.448-4.448-1.544 1.544c-5.265-6.174-5.537-15.07-1.09-21.605l.727.726 4.54-4.447-.817-.727c2.905-2.088 6.446-3.178 10.077-3.178 4.267 0 8.26 1.544 11.528 4.267l-1.634 1.544 4.54 4.448 4.447-4.448-4.447-4.54v-.001zM20.97 47.66l-1.906 1.906-1.907-1.906 1.907-1.907 1.906 1.907zm8.353-43.03a1.794 1.794 0 011.271-.545c.454 0 .907.182 1.271.545.727.727.727 1.816 0 2.541a1.794 1.794 0 01-1.27.545c-.455 0-.908-.182-1.272-.545-.727-.635-.727-1.816 0-2.541zM4.903 34.133a1.794 1.794 0 01-1.272.544c-.455 0-.908-.182-1.272-.544-.362-.273-.545-.727-.545-1.272 0-.454.183-.907.545-1.271a1.787 1.787 0 011.272-.545c.454 0 .907.182 1.271.545.727.727.727 1.906 0 2.541v.002zm12.164-12.8l-1.906-1.907 1.906-1.906 1.907 1.906-1.907 1.907zm28.324 1.906l-1.907-1.906 1.907-1.907 1.906 1.907-1.906 1.906z" fill="#00B2A0"/></svg>
